symbols/web/repeat_on/materialsymbolsoutlined/repeat_on_grad200_48px.svg

<svg xmlns="http://www.w3.org/2000/svg" height="48" width="48"><path d="M4.85 46.8q-1.5 0-2.575-1.075Q1.2 44.65 1.2 43.15V4.8q0-1.45 1.075-2.55 1.075-1.1 2.575-1.1H43.2q1.45 0 2.55 1.1 1.1 1.1 1.1 2.55v38.35q0 1.5-1.1 2.575-1.1 1.075-2.55 1.075Zm8.95-2.1 2.6-2.65-4.05-4H38.6V26.3h-3.65v8.1h-22.6l4.05-4.05-2.6-2.65-8.5 8.5ZM9.45 21.65h3.65v-8.1h22.6l-4.05 4.05 2.6 2.65 8.5-8.5-8.5-8.5-2.6 2.65 4.05 4H9.45Z"/></svg>

<svg xmlns="http://www.w3.org/2000/svg" height="48" width="48"><path d="M4.85 46.8Q3.35 46.8 2.275 45.725Q1.2 44.65 1.2 43.15V4.8Q1.2 3.35 2.275 2.25Q3.35 1.15 4.85 1.15H43.2Q44.65 1.15 45.75 2.25Q46.85 3.35 46.85 4.8V43.15Q46.85 44.65 45.75 45.725Q44.65 46.8 43.2 46.8ZM13.8 44.7 16.4 42.05 12.35 38.05H38.6V26.3H34.95V34.4H12.35L16.4 30.35L13.8 27.7L5.3 36.2ZM9.45 21.65H13.1V13.55H35.7L31.65 17.6L34.25 20.25L42.75 11.75L34.25 3.25L31.65 5.9L35.7 9.9H9.45Z"/></svg>
